X: 1
T:Kas a barh
C:Pennec, Tablatures
M:4/4
L:1/8
K:G
G2Bc d2g2|fede d2ef|g2d2 edef|g2dB GBAB|\
G2Bc d2g2|fede d2ef|g2fe dgdc|BGAF G4:|
|:G2FG A2Ac|BABc d2fe|d2g2 dedc|BABc d2BA|\
G2FG A2Ac|BABc d2fe|d2g2 dedc|BGAF G4:|
